X: 49
T: No_142_Opening_Song_of_the_Limo.krn
N: Derived from No_142_Opening_Song_of_the_Limo.krn
%%abc-version 2.0
%%abcx-abcm2ps-target-version 5.9.1 (29 Sep 2008)
%%abc-creator hum2abc beta
%%abcx-conversion-date 2019/03/15 08:37:56
%%humdrum-veritas 2927580889
%%humdrum-veritas-data 1966040592
%%linebreak <none>
%%barnumbers 0
L: 1/8
M: 2/4
K: Db clef=bass
[K:clef=bass][M:2/4]A,4 | 
B,2A,!fermata!E, | 
A,2A,2 | 
A,E, G,/G,3/ ]|:  
[M:3/4]E,2z2G,E, | 
A,4E,3/F,/ | 
E,3/D,/ E,3/D,/ D,3/B,,/ | 
D,2D,3/B,,/ D,B,,3//D,// ||  
[M:2/4]D,3/D,/ B,,3/D,/ | 
D,3/D,/D,2 | 
E,3/E,/ B,,3/D,/ | 
D,3/D,/D,2 | 
G,2E,2 | 
G,E, G,/G,3/ :|]  



